src/assets/icon/history.svg

<svg width="16" height="16" viewBox="0 0 16 16" fill="none" xmlns="http://www.w3.org/2000/svg">
<mask id="mask0_338_2565" style="mask-type:alpha" maskUnits="userSpaceOnUse" x="0" y="0" width="16" height="16">
<rect width="16" height="16" fill="#D9D9D9"/>
</mask>
<g mask="url(#mask0_338_2565)">
<path d="M7.98674 13.6668C6.64663 13.6668 5.46546 13.2578 4.44324 12.4398C3.42102 11.6219 2.76585 10.5754 2.47774 9.30016C2.44185 9.16772 2.46346 9.04594 2.54257 8.93483C2.62157 8.82372 2.73352 8.75916 2.8784 8.74116C3.01474 8.72327 3.13696 8.75022 3.24507 8.822C3.35318 8.89377 3.42863 8.99933 3.4714 9.13866C3.72518 10.1686 4.27196 11.0141 5.11174 11.6752C5.95152 12.3363 6.90985 12.6668 7.98674 12.6668C9.28674 12.6668 10.3895 12.2141 11.2951 11.3085C12.2006 10.4029 12.6534 9.30016 12.6534 8.00016C12.6534 6.70016 12.2006 5.59738 11.2951 4.69183C10.3895 3.78627 9.28674 3.3335 7.98674 3.3335C7.25852 3.3335 6.57607 3.49527 5.9394 3.81883C5.30263 4.14227 4.75429 4.58733 4.2944 5.154H5.53807C5.67974 5.154 5.79846 5.20194 5.89424 5.29783C5.99013 5.39372 6.03807 5.5125 6.03807 5.65416C6.03807 5.79594 5.99013 5.91466 5.89424 6.01033C5.79846 6.10611 5.67974 6.154 5.53807 6.154H3.25607C3.08529 6.154 2.94218 6.09622 2.82674 5.98066C2.71118 5.86522 2.6534 5.72211 2.6534 5.55133V3.26933C2.6534 3.12766 2.70135 3.00894 2.79724 2.91316C2.89313 2.81727 3.01196 2.76933 3.15374 2.76933C3.2954 2.76933 3.41413 2.81727 3.5099 2.91316C3.60557 3.00894 3.6534 3.12766 3.6534 3.26933V4.34883C4.1944 3.71038 4.84229 3.21488 5.59707 2.86233C6.35174 2.50977 7.14829 2.3335 7.98674 2.3335C8.7734 2.3335 9.51024 2.48222 10.1972 2.77966C10.8842 3.07711 11.4833 3.48138 11.9944 3.9925C12.5055 4.50361 12.9098 5.10261 13.2072 5.7895C13.5047 6.4765 13.6534 7.21327 13.6534 7.99983C13.6534 8.78638 13.5047 9.52322 13.2072 10.2103C12.9098 10.8976 12.5055 11.4967 11.9944 12.0078C11.4833 12.5189 10.8842 12.9232 10.1972 13.2207C9.51024 13.5181 8.7734 13.6668 7.98674 13.6668ZM8.5059 7.79766L10.3392 9.631C10.4316 9.72322 10.4788 9.83922 10.4809 9.979C10.4831 10.1188 10.4359 10.2369 10.3392 10.3335C10.2427 10.4301 10.1256 10.4783 9.98807 10.4783C9.8504 10.4783 9.73329 10.4301 9.63674 10.3335L7.68674 8.3835C7.6244 8.32105 7.57868 8.25305 7.54957 8.1795C7.52057 8.10594 7.50607 8.02994 7.50607 7.9515V5.16683C7.50607 5.02516 7.55396 4.90638 7.64974 4.8105C7.74563 4.71472 7.86446 4.66683 8.00624 4.66683C8.1479 4.66683 8.26663 4.71472 8.3624 4.8105C8.45807 4.90638 8.5059 5.02516 8.5059 5.16683V7.79766Z" fill="#636263"/>
</g>
</svg>

<svg xmlns="http://www.w3.org/2000/svg" width="16" height="16" fill="none" xmlns:v="https://vecta.io/nano"><mask id="A" maskUnits="userSpaceOnUse" x="0" y="0" width="16" height="16" mask-type="alpha"><path fill="#d9d9d9" d="M0 0h16v16H0z"/></mask><g mask="url(#A)"><path d="M7.987 13.667c-1.34 0-2.521-.409-3.543-1.227A5.45 5.45 0 0 1 2.478 9.3c-.036-.132-.014-.254.065-.365s.191-.176.336-.194a.52.52 0 0 1 .367.081c.108.072.184.177.226.317a4.52 4.52 0 0 0 1.64 2.537 4.52 4.52 0 0 0 2.875.992 4.5 4.5 0 0 0 3.308-1.358A4.5 4.5 0 0 0 12.653 8a4.5 4.5 0 0 0-1.358-3.308 4.5 4.5 0 0 0-3.308-1.358c-.728 0-1.411.162-2.047.485a5.04 5.04 0 0 0-1.645 1.335h1.244c.142 0 .26.048.356.144s.144.215.144.356-.048.26-.144.356-.215.144-.356.144H3.256c-.171 0-.314-.058-.429-.173s-.173-.259-.173-.429V3.269c0-.142.048-.26.144-.356s.215-.144.357-.144.26.048.356.144.143.215.143.356v1.08a5.66 5.66 0 0 1 1.944-1.487 5.58 5.58 0 0 1 2.39-.529c.787 0 1.523.149 2.21.446a5.74 5.74 0 0 1 1.797 1.213 5.74 5.74 0 0 1 1.213 1.797c.297.687.446 1.424.446 2.21s-.149 1.523-.446 2.21-.702 1.286-1.213 1.797a5.74 5.74 0 0 1-1.797 1.213c-.687.297-1.424.446-2.21.446zm.519-5.869l1.833 1.833c.092.092.14.208.142.348a.47.47 0 0 1-.142.355c-.097.097-.214.145-.351.145a.48.48 0 0 1-.351-.145l-1.95-1.95c-.062-.062-.108-.13-.137-.204s-.043-.15-.043-.228V5.167c0-.142.048-.26.144-.356s.215-.144.356-.144.26.048.356.144.144.215.144.356v2.631z" fill="#636263"/></g></svg>
